icons/video-recording.svg

<svg width="25" height="24" viewBox="0 0 25 24" fill="none" xmlns="http://www.w3.org/2000/svg">
<path fill-rule="evenodd" clip-rule="evenodd" d="M10.1992 8.5C8.26622 8.5 6.69922 10.067 6.69922 12C6.69922 13.933 8.26622 15.5 10.1992 15.5C12.1322 15.5 13.6992 13.933 13.6992 12C13.6992 10.067 12.1322 8.5 10.1992 8.5ZM8.69922 12C8.69922 11.1716 9.37079 10.5 10.1992 10.5C11.0276 10.5 11.6992 11.1716 11.6992 12C11.6992 12.8284 11.0276 13.5 10.1992 13.5C9.37079 13.5 8.69922 12.8284 8.69922 12Z" fill="#9AA1B4"/>
<path fill-rule="evenodd" clip-rule="evenodd" d="M2.69922 8C2.69922 5.79086 4.49008 4 6.69922 4H13.6992C15.6602 4 17.2916 5.41112 17.6334 7.27332L19.6702 6.05121C21.0033 5.25138 22.6992 6.2116 22.6992 7.76619V16.2338C22.6992 17.7884 21.0033 18.7486 19.6702 17.9488L17.6334 16.7267C17.2916 18.5889 15.6602 20 13.6992 20H6.69922C4.49008 20 2.69922 18.2091 2.69922 16V8ZM20.6992 16.2338L17.6992 14.4338V9.56619L20.6992 7.76619V16.2338ZM15.6992 8V16C15.6992 17.1046 14.8038 18 13.6992 18H6.69922C5.59465 18 4.69922 17.1046 4.69922 16V8C4.69922 6.89543 5.59465 6 6.69922 6H13.6992C14.8038 6 15.6992 6.89543 15.6992 8Z" fill="#9AA1B4"/>
</svg>

<?xml version="1.0" encoding="utf-8"?>
<!-- Generator: Adobe Illustrator 22.1.0, SVG Export Plug-In . SVG Version: 6.00 Build 0)  -->
<svg version="1.1" id="Layer_1" xmlns="http://www.w3.org/2000/svg" xmlns:xlink="http://www.w3.org/1999/xlink" x="0px" y="0px"
	 viewBox="0 0 25 24" style="enable-background:new 0 0 25 24;" xml:space="preserve">
<style type="text/css">
	.st0{fill:#9AA1B4;}
</style>
<path class="st0" d="M10.2,8.5c-1.9,0-3.5,1.6-3.5,3.5s1.6,3.5,3.5,3.5c1.9,0,3.5-1.6,3.5-3.5S12.1,8.5,10.2,8.5z M8.7,12
	c0-0.8,0.7-1.5,1.5-1.5c0.8,0,1.5,0.7,1.5,1.5s-0.7,1.5-1.5,1.5C9.4,13.5,8.7,12.8,8.7,12z"/>
<path class="st0" d="M19.7,6.1l-2,1.2c-0.3-1.9-2-3.3-3.9-3.3h-7c-2.2,0-4,1.8-4,4v8c0,2.2,1.8,4,4,4h7c2,0,3.6-1.4,3.9-3.3l2,1.2
	c1.3,0.8,3-0.2,3-1.7V7.8C22.7,6.2,21,5.3,19.7,6.1z M15.7,16c0,1.1-0.9,2-2,2h-7c-1.1,0-2-0.9-2-2V8c0-1.1,0.9-2,2-2h7
	c1.1,0,2,0.9,2,2V16z M20.7,16.2l-3-1.8V9.6l3-1.8V16.2z"/>
</svg>
